X: 2880
T: Barnacle, The
R: mazurka
M: 3/4
K: Dmajor
|DF|:A2 AG FA|d2 dc df|e2 ed ef|ab a2 DF|
A2 AG FA|d2 dc df|e2 ed ef|1 d4 DF:|2 d4 dB||
|:Ad fd fd|Ad fd fd|Ac ec ec|Ac ec ec|
Ad fd fd|Ad f2 fg|a2 af ef|1 d4 dB:|2 d4 de||
|:f2 fg fe|d2 de dc|B2 BA FA|B2 BA FA|
f2 fg fe|d2 dcdf|a2 af ef|1 d4 de:|2 d4 DF||

